X:1
T:Title
%%score 1 2
L:1/8
M:3/2
K:C
V:1 treble-8 nm="Part_1"
V:2 bass nm="Part_2"
V:1
 e6 B3 B/B/ ^c/d/e/f/ |[M:2/2] e2 e^f g>d e/e/d/c/ |[M:4/2] de d2 c2 e3 d c2 B4 |[M:3/2] z4 z4 z4 | %4
w: O quam glo- ri- o- sa fac- ta|est in de- li- ci- is Vir- gi- ni-|ta- * * tis et su- a- vis||
 d6 A3 A/A/ B/c/d/e/ |[M:2/2] d2 de f>f e/e/d/c/ | B2 A2 e^cd>d |[M:4/8] d/d/e/^f/ g2 | %8
w: O quam glo- ri- o- sa fac- ta|est in de- li- ci- is Vir- gi- ni|ta- tis in de- li- ci-|is Vir- gi- ni- ta-|
[M:3/2] f2 e3 d e2 e/A/A/B/ ^c/d/e/f/ |[M:2/2] e>e d2 de/^f/ g2 |[M:3/2] e2 ef/g/ a2 ^g2 a>aag | %11
w: tis et su- a- vis quam glo- ri- o- sa in de-|li- ci- is Vir- gi- ni- ta-|tis Vir- gi- ni- ta- tis Tanc- ta De- i|
[M:2/2] f>f e2 z4 | z4 gefd | ee/f/ d2 ccfd/g/ | e/d/e/f/ d2 ce d/e/c/d/ | B2 A2 z4 |[M:4/8] z4 | %17
w: ge- ni- trix|quam vi- den- tes|i- li- ze Ty- on ver- nan- tem in|lo- ri- bus Ro- sa- rum in flo- ri- bus Ro-|sa- rum||
 z2 z e- |[M:2/2] e^fg>g g/e/d/c/ B/cB/ |[M:4/8] cc/c/ f2 |[M:2/2] dd/d/ g2 ee/e/ f/g/f/e/ | %21
w: Be-|* a- tis- si- mam prze- di- ca- ve- * *|runt et re- gi-|ne et re- gi- ne et re- gi- ne Lau- da-|
 d c2 B c4 | z4 z g/f/ee |[M:3/2] z g/f/ee z e/d/^cc d/e/c/d/ B2 |[M:2/2] Ae/d/cA z e/d/cA | %25
w: e- runt e- am|et re- gi- ne|et re- gi- ne et- re- gi- ne Lau- da- ve- runt e-|am et re- gi- ne et re- gi- ne|
[M:4/2] B/B/c/c/ B2 Ac/d/ e/c/e/f/ ge d2 c4 |[M:2/2] z2 z g/f/ e/e/g/e/ d2 |[M:4/8] c2 z e/d/ | %28
w: Lau- da- ve- runt e- am et re- gi- ne lau- da- ve- runt e- am|Al- le- lu- ia Al- le- lu-|ia Al- le-|
[M:2/2] c/c/e/c/ B2 A4 |[M:6/2] z12 z12 | e6 d2 ^c4 d2 B4 =c2 A4 | G8 z4 z12 | %32
w: lu- ia Al- le- lu- ia||Al- le- lu- ia Al- le- lu-|ia|
 g6 f2 e4 f2 d4 e2 c4 | B8 z4 z12 | a6 g2 ^f4 g2 e4 =f2 d4 |[M:5/2] e2 f4 e2 e4 e8 |] %36
w: I- le- lu- ia Al- le- lu-|ia|I- le- lu- ia Al- le- lu-|ia Al- le- lu- ia|
V:2
 A,,4 E,2 E,3 E,/E,/A,,/B,,/^C,/D,/ |[M:2/2] A,,2 A,,D,G,,>G,,C,/C,/B,,/A,,/ | %2
[M:4/2] G,,4 C,2 C,3 G,, A,,2 E,4 |[M:3/2] ^C,2 D,2 B,,4 A,,4 | %4
 G,,4 D,2 D,3 D,/D,/G,,/A,,/B,,/C,/ |[M:2/2] G,,2 G,,C, F,,2 C,/C,/B,,/A,,/ | E,2 A,,2 A,,A,, D,2 | %7
[M:4/8] G,,/B,,/C,/D,/ E,2 |[M:3/2] D,2 E,3 F, E,2 A,,/A,,/A,,/G,,/ A,,/B,,/^C,/D,/ | %9
[M:2/2] A,,2 D,2 D,^C,/D,/ G,,2 |[M:3/2] C,2 C,D,/E,/ F,2 E,2 ^C,4 |[M:2/2] D,2 A,,2 D,B,,C,A,, | %12
 B,,B,,/C,/ A,,2 G,,C,F,,G,, | C,C,/F,,/ G,,2 C,C,F,,G,,/G,,/ | %14
 C,/B,,/C,/A,,/ G,,2 C,C,B,,/C,/A,,/D,/ | E,2 A,, A,2 ^F,G,>G, |[M:4/8] G,E,D,C, | B,,2 A,,A,,- | %18
[M:2/2] A,,D, G,,>G,,G,,/C,/B,,/A,,/ G,,2 |[M:4/8] C,2 F,,F,,/F,,/ | %20
[M:2/2] _B,,2 G,,2 C,C,/C,/ F,/E,/D,/C,/ | G,A, G,2 C,C,/B,,/ A,,2 | G,, G,/F,/ E,2 D,E,/D,/ C,2 | %23
[M:3/2] B,,2 C,C,/B,,/ A,,C,/B,,/ A,,A,,D,/^C,/F,/D,/ E,2 |[M:2/2] A,,2 A,,2 E,2 A,,A,, | %25
[M:4/2] E,E, E,2 A,,A,,/B,,/C,/A,,/C,/D,/ E,C, G,,2 C,C,/B,,/A,,/A,,/C,/A,,/ | %26
[M:2/2] G,,2 C,E,/D,/C,/C,/E,/C,/ G,,2 |[M:4/8] C,C,/B,,/A,,/A,,/C,/B,,/ |[M:2/2] A,,2 E,2 A,,4 | %29
[M:6/2] A,6 G,2 ^F,4 G,2 E,4 F,2 D,4 | C,6 B,,2 A,,4 D,2 G,,4 C,2 D,4 | %31
 G,6 F,2 E,4 F,2 D,4 E,2 C,4 | G,,6 D,2 C,4 D,2 B,,4 C,2 A,,4 | E,6 D,2 ^C,4 D,2 B,,4 A,,2 E,4 | %34
 A,,6 C,2 D,4 B,,2 C,4 F,,2 G,,4 |[M:5/2] C,2 D,4 ^C,2 E,4 A,,8 |] %36

